!!!!SEGMENT: pl-sa--20-a-i-20--002_anonim--polonez.krn
!!!cenid: 18xx:650
!!!COM: Anonim
!!!COM-rismID: pe30004985
!!!CDT:
!!!CNT:
!!!OTL: Polonez
!!!PDT:
!!!AGN: Secular; Polonaise
!!!SMS-siglum: PL-SA
!!!SMS-shelfmark: 20/A I 20
!!!SMS-shelfwork: 002 W
!!!SMS-variant:
!!!SMS-altvar:
!!!NIFC-rismSourceID: 1001065411
!!!NIFC-islandoraID:
!!!URL-pdf-islandora:
!!!URL-scan: https://bc.bdsandomierz.pl/dlibra/publication/1293/edition/1261/content @EN{Scan in the Sandomierz Diocese Digital Library} @PL{Skany w portalu Cyfrowa Biblioteka Diecezjalna w Sandomierzu}
!!!ONB-nifc: Str. 4-5
!!!AIN: 2 empty
!!!key:
**kern	**kern
*part2	*part1
*staff2	*staff1
*Iempty	*Iempty
*I"	*I"
*clefF4	*clefG2
*k[b-e-a-]	*k[b-e-a-]
*c:	*c:
*M3/4	*M3/4
*>[A,A,B,B,A,A,B,B,C,C,D,D,C,C,D,D]	*>[A,A,B,B,A,A,B,B,C,C,D,D,C,C,D,D]
=1	=1
*>A	*>A
*	*2\right
!	!LO:TX:a:Bi:t=Polon&colon;
4C/	(>4.gg 4.ee-\
4c\	.
.	8ff 8dd\)
4C/	8ee-L 8cc\
.	8ee-J 8cc\
=2	=2
4GG/	16ee-LL 16cc\
.	16dd\
.	16ff\
.	16ee-\JJ
4G\	4dd 4bn\
4r	16ddLL 16b\
.	16ee- 16cc\
.	16ff 16dd\
.	16ggJJ 16ee-\
=3	=3
.	8qqgg/
4r	4.aa- 4.ff\
4Bn\	.
.	8gg 8ee-\
4d\	8ffL 8dd\
.	8ffJ 8dd\
=4	=4
4c\	16ggLL 16ee-\
.	16ff 16dd\
.	16ee- 16cc\
.	16ddJJ 16b-\
4C/	8ccL 8e-/
.	8ee- 8g/
4r	8dd 8f/
.	8ccJ 8e-/
=5	=5
!LO:TX:t=P:problem=mixed beam	!
8GG/L	4bn 4g 4d/
8G\J	.
*rep	*
8GG/L	16b\LL
.	16cc\J
8G\J	8cc\J
*Xrep	*
*rep	*
8GG/L	16ee-\LL
.	16dd\
8G\J	16cc\
.	16b\JJ
*Xrep	*
=6	=6
!LO:TX:t=P:problem=mixed beam	!
8C/L	(>16cc\LL
.	16g\)
8c\J	(>16ee-\
.	16cc\JJ)
!!LO:LB:g=original
!LO:TX:t=P:problem=mixed beam	!
8C/L	(>16gg\LL
.	16ee-\)
8c\J	(>16ccc\
.	16gg\JJ)
*rep	*
8C/L	16ff\LL
.	16ee-\
8c\J	16dd\
.	16cc\JJ
*Xrep	*
=7	=7
8GG/L	8r
8BBn/J	8d/
16BB/LL	(<16d/LL
16C/J	16e-/J)
!	!LO:SIC:o=t:v:t=w źródle literka t nad nutą 8e-, może oznaczać tryl
8C/J	8e-/J
16E-/LL	(<16g/LL
16D/	16f/
16C/	16e-/
16BB/JJ	16d/JJ)
=8	=8
4C/	16c/LL
.	16G/
.	16e-/
.	16c/JJ
16E-\LL	16g\LL
16G\	16ee-\
16F\	16dd\
16E-\JJ	16cc\JJ
16D\LL	16bn\LL
16E-\	16cc\
16F\	16dd\
16E-\JJ	16cc\JJ
=9	=9
4BBn/	4aa- 4ff\
4r	16aa-\LL
.	16ff\
.	16ee-\
.	16dd\JJ
4r	16cc\LL
.	16bn\
.	16dd\
.	16ff\JJ
=10	=10
4C/	4gg 4ee-\
4r	16gg\LL
.	16ee-\
.	16dd\
.	16cc\JJ
4r	16g\LL
.	16cc\
.	16ee-\
.	16gg\JJ
=11	=11
!LO:TX:t=P:problem=mixed beam	!
8GG/L	16ff\LL
.	16gg\
8G\J	16aa-\
.	16gg\JJ
*rep	*
8GG/L	16bb-\LL
.	16aa-\
8G\J	16gg\
.	16ff\JJ
*Xrep	*
!!LO:LB:g=original
!LO:TX:t=P:problem=mixed beam	!
8GG/L	16gg\LL
.	16ff\
8G\J	16ee-\
.	16dd\JJ
=12	=12
8C/L	16cc\LL
.	16bn\
8GG/J	16gg\
.	16b\JJ
.	8qqb/
!LO:TX:t=P:problem=mixed beam	!
8G/L	2cc\
8GG\J	.
4C/	.
=13:|!|:;>	=13:|!|:;>
*>B	*>B
8EE-/L	4.ee- 4.g 4.e-/
8GG/	.
8BB-/	.
8EE-/J	8b-X 8g/
8GG/L	16an/LL
.	16b-/J
8BB-/J	8b-/J
=14	=14
!LO:TX:t=P:problem=mixed beam	!
8EE-/L	16cc\LL
.	16b-\
8E-\J	16an\
.	16b-\JJ
*rep	*
8EE-/L	16b-\LL
.	16ee-\
8E-\J	16gg\
.	16ff\JJ
*Xrep	*
*rep	*
8EE-/L	16ee-\LL
.	16dd\
8E-\J	16cc\
.	16b-\JJ
*Xrep	*
=15	=15
.	16qqa-/
8BB-\L	4.ff 4.a-X\
8D\	.
8F\	.
8BB-\	8a- 8f/
8D\	16g/LL
.	16a-/J
8F\J	8ani/J
=16	=16
!LO:TX:t=P:problem=mixed beam	!
8BB-/L	16b-LL 16g/
.	16a- 16f/
8B-\J	16g 16en/
.	16a-JJ 16f/
!!LO:LB:g=original
!LO:TX:t=P:problem=mixed beam	!
8BB-/L	16a-\LL
.	16dd\
8B-\J	16ff\
.	16ee-\JJ
8BB-/L	16dd\LL
.	16cc\
8AAn/J	16bn\
.	16dd\JJ
=17	=17
.	8qqbn/
4C/	8.cc\L
.	16g\Jk
.	8qqA-/
4CC/	8.a-/L
.	16f/Jk
!	!LO:TX:t=P:problem=mixed beam
4C/	8.g/L
.	16ee-\Jk
=18	=18
!LO:TX:t=P:problem=mixed beam	!LO:TX:t=P:problem=mixed beam
16G\LL	16dd\LL
16GG/	16g/
16BBn/	16bn/
16D/JJ	16dd/JJ
4G\	8ggL 8ee-\
.	8ff 8dd\
4GG/	8ee- 8cc\
.	8ddJ 8bn\
!	!LO:TX:a:B:t=Da Capo
!!LO:PB:g=original
=19||;>	=19||;>
*>C	*>C
*k[b-e-a-]	*k[b-e-a-]
*M3/4	*M3/4
*	*I"Trio
4C/	8cccL 8ee-\
.	8ggJ 8ee-\
4c\	8r
.	8gg 8ee-\
4C/	16aa-\LL
.	16gg\
.	16ff#X\
.	16gg\JJ
=20	=20
!LO:TX:t=P:problem=mixed beam	!
8C/L	(>16g\LL
.	16cc\
8c\J	16ee-\
.	16cc\JJ)
*rep	*
8C/L	16gg\LL
.	16ee-\
8c\J	16dd\
.	16cc\JJ
*Xrep	*
*rep	*
8C/L	16bnLL 16g\
.	16cc 16an\
8c\J	16dd 16b\
.	16ee-JJ 16cc\
*Xrep	*
=21	=21
4BBn/	8dddL 8ff\
.	8gg\J
!LO:N:vis=8	!
4Bn\	8r
.	8gg 8ee-\
4BBn/	16aa-X\LL
.	(>16gg\
.	16ff#X\)
.	16gg\JJ
!!LO:LB:g=original
=22	=22
!LO:TX:t=P:problem=mixed beam	!
8GG/L	16g\LL
.	16bn\
8G\J	16ee-\
.	16gg\JJ
*rep	*
8GG/L	16bb-\LL
.	16gg\
8G\J	16ddd\
.	16bb-\JJ
*Xrep	*
*rep	*
8GG/L	16ggLL 16ee-\
.	16ff 16dd\
8G\J	16ee- 16cc\
.	16ddJJ 16bn\
*Xrep	*
=23	=23
8C/	16cc\LL
.	16ccc\
8r	16bb-X\
.	16aa-\JJ
8A- 8F\	16r
.	16aa-LL 16ff\
8r	16gg 16ee-\
.	16ffJJ 16dd\
8F 8D\	16r
.	16ffLL 16dd\
8r	16ee- 16cc\
.	16ddJJ 16bn\
=24	=24
!LO:TX:t=P:problem=mixed beam	!
8G\L	16cc\LL
.	16bn\
8GG/J	16gg\
.	16b\JJ
.	8qqb/
8r	2cc\
8GG/	.
4C/	.
=25:|!|:;>	=25:|!|:;>
*>D	*>D
4EE-/	8ee-L 8g 8e-/
.	8b-J 8g/
4E-\	16g/LL
.	16b-/
.	16ee-/
.	16gg/JJ
8r	8bb-L 8gg\
8En\	8bb-J 8gg\
!!LO:LB:g=original
=26	=26
!LO:TX:t=P:problem=mixed beam	!
8F\L	16bb-LL 16gg\
.	16aa- 16ff\
8C/J	16aa- 16ff\
.	16ggJJ 16een\
8r	4gg 4eenX\
8C/	.
8En/L	16aa-LL 16ff\
.	16gg 16eenX\
8C/J	16aa- 16ff\
.	16ggJJ 16eenX\
=27	=27
4F\	8aa-L 8ff\
.	8ff\J
4r	16f/LL
.	16b-/
.	16dd/
.	16ff/JJ
8r	8aa-L 8ff\
8D/	8aa-J 8ff\
=28	=28
!LO:TX:t=P:problem=mixed beam	!
8E-X\L	16aa-LL 16ff\
.	16gg 16ee-X\
8BB-/J	16gg 16ee-\
.	16ffJJ 16dd\
8r	4ff 4dd\
8BB-/L	.
8D/	16bb-LL 16gg\
.	16aa- 16ff\
8BB-/J	16gg 16ee-\
.	16ffJJ 16dd\
=29	=29
!LO:TX:t=P:problem=mixed beam	!
8EE-/L	16ff#X\LL
.	16gg\
8E-\J	16bb-\
.	16gg\JJ
!LO:TX:t=P:problem=mixed beam	!
8GG/L	16ffn\LL
.	16ee-\
8G\J	16gg\
.	16ee-\JJ
8F\L	16dd\LL
.	16cc\
8F#X\J	16ee-\
.	16cc\JJ
!!LO:LB:g=original
=30	=30
4G\	8bn\L
.	8ggJ 8ee-\
4GG/	8ggL 8ee-\
.	8ff 8dd\
4G\	8ee- 8cc\
.	8ddJ 8bnX\
*	*2\left
!	!LO:TX:a:B:t=Trio Da Capo
==	==
*-	*-
!!!system-decoration: {s1,s2}
!!!RDF**kern: i = editorial accidental
!!!RDF**kern: > = above
!!!RDF**kern: < = below
!!!EED: Wojciech Jakubiak-Danek
!!!EEV: 2020-10-08
!!!ENC: Marta Chmielewska
!!!END: 2020-06-18
